X:84
T:Playford simple chords 9
M:3/4
L:1/8
K:Ddor
[DG,B,D]E DG2A | [BG,B,D]c BA2G | [dG,B,DF]B2A2G | [E6C,6E,6G,6] | [DG,B,D]E DG2A |
[BG,B,D]c BA2G | [dG,B,D]B2c2d | [e5C,5E,5G,5]e | [dG,B,D]B2A2G |
[c2C,2E,2G,2] de dc | [dG,B,D]B cA2G | [E3A,3C3E3]G2E | [DG,B,D]E DG2A |
[BG,B,D]c de dc | [dA,CE]B cA2G | [G5G,5B,5D5] |


